X:1
T:Blink Over the Burn, Sweet Betty
M:6/4
L:1/4
K:Eb
 c| B G E F2 d| e3 =B2 c| B G E F2 G| c3- c2 d| B- G E F2 d| e3 =B2 c|\
 B- G E F2 G| c3- c2 d| e d e f e d| e3 d2 d| c =B c f3/2e/2-d/2-c/2|\
 _B3- B2 c| B G E F2 d| e3 =B2 c| B G E F2 G| c3- c2||
